website/public/Images/svg/play.svg

<svg width="24" height="24" viewBox="0 0 24 24" fill="none" xmlns="http://www.w3.org/2000/svg">
<path d="M12 0C9.62663 0 7.30655 0.703788 5.33316 2.02236C3.35977 3.34094 1.8217 5.21508 0.913451 7.4078C0.0051994 9.60051 -0.232441 12.0133 0.230582 14.3411C0.693605 16.6689 1.83649 18.807 3.51472 20.4853C5.19295 22.1635 7.33115 23.3064 9.65892 23.7694C11.9867 24.2324 14.3995 23.9948 16.5922 23.0865C18.7849 22.1783 20.6591 20.6402 21.9776 18.6668C23.2962 16.6934 24 14.3734 24 12C24 8.8174 22.7357 5.76515 20.4853 3.51472C18.2348 1.26428 15.1826 0 12 0ZM18.4114 12.7543L8.98286 17.8971C8.85256 17.9724 8.70475 18.012 8.55429 18.012C8.40383 18.012 8.25602 17.9724 8.12572 17.8971C7.99683 17.8187 7.89091 17.7077 7.81867 17.5753C7.74643 17.4428 7.71042 17.2937 7.71429 17.1429V6.85714C7.71432 6.70839 7.75305 6.56221 7.82669 6.43296C7.90033 6.30372 8.00634 6.19586 8.13429 6.12C8.26459 6.04477 8.4124 6.00516 8.56286 6.00516C8.71332 6.00516 8.86113 6.04477 8.99143 6.12L18.42 11.2629C18.5561 11.3363 18.6697 11.4452 18.749 11.578C18.8282 11.7108 18.87 11.8625 18.87 12.0171C18.87 12.1718 18.8282 12.3235 18.749 12.4563C18.6697 12.5891 18.5561 12.698 18.42 12.7714L18.4114 12.7543Z" fill="#F26D00"/>
</svg>

<svg xmlns="http://www.w3.org/2000/svg" width="24" height="24" fill="none" xmlns:v="https://vecta.io/nano"><path d="M12 0A12 12 0 0 0 .913 7.408a12 12 0 0 0 2.601 13.077 12 12 0 0 0 13.077 2.601A12 12 0 0 0 24 12 12 12 0 0 0 12 0zm6.411 12.754l-9.429 5.143c-.13.075-.278.115-.429.115s-.298-.04-.429-.115-.235-.189-.307-.322-.108-.282-.104-.432V6.857c0-.149.039-.295.112-.424s.18-.237.308-.313.278-.115.429-.115.298.04.429.115l9.429 5.143c.136.073.25.182.329.315s.121.285.121.439-.042.306-.121.439-.193.242-.329.315l-.009-.017z" fill="#f26d00"/></svg>
